X:1
T:Title
%%score { ( 1 3 ) | ( 2 4 ) }
L:1/8
M:6/8
K:Ab
V:1 treble nm="Grand Piano"
V:3 treble 
V:2 bass 
V:4 bass 
V:1
 z3 z2[Q:1/4=87] [CE] | [CE]>[DF][CE] [CE]C[DF] | [CE][EA][EB] [Ec]2 [Ec] | B>cB B>cB | %4
 [=DA]>[DG][DF] [B,E]2 [_DE] | [CE]>[DF][CE] [CE]C[CE] | [CA][DB][_Gc] [Fd]2 [Ee] | %7
 [Ee]f>[Ee] [Ee]<[Ec][CEA] | [B,EG][CEA][DEB] [A,CEA]3 | [Fd]>[Fd][Fd] [Fd]/f/- f2 | %10
 c>cc c/e/- e2 | [F=d]>[Fd][Fd] [Fd][Ec][AB] | e6 | e>fe e/[Ac]/- [Ac]2 | %14
[M:13/16] [=Ec]>[Ed][Ec][Dc]<[DB][Af]3/2 |[M:3/4] [Ae]<[Ac] AG- G/A/B | %16
[M:5/8] [CEA]-[CEA]- [CEA]3 |] %17
V:2
 z3 z2 [A,,A,] | [A,,A,]>[A,,A,][A,,A,] [A,,A,][A,,A,][A,,A,] | %2
 [A,,A,][C,A,][E,G,] [A,,A,]2 [A,,A,] | [E,G,E]>[E,A,E][E,G,E] [F,A,=D]>[F,A,D][F,A,D] | %4
 [B,,B,]>[B,,B,][B,,A,] [E,G,]2 [E,G,] | [A,,A,]>[A,,A,][A,,A,] [A,,A,][A,,A,][A,,A,] | %6
 [A,,A,][A,,A,][E,A,] [D,A,]2 [C,A,] | [C,A,][D,A,D]>[C,A,] [C,A,]<[A,,A,]A,, | E,E,E, A,,3 | %9
 [D,A,]>[D,A,][D,A,] [D,A,]/[D,A,D]/- [D,A,D]2 | [A,E]>[A,E][A,E] [A,E]/[A,C]/- [A,C]2 | %11
 [B,,A,]>[B,,A,][B,,A,] [B,,A,][B,,A,][F,A,] | B,>A,B,/C/ D2 B, | %13
 [A,,CA]>[A,,DA][A,,CA] [A,,CA]/[A,,A,]/- [A,,A,]2 | %14
[M:13/16] [C,G,]>[C,G,][C,G,][D,G,]<[D,F,][D,D]3/2 | %15
[M:3/4] [E,C]<[E,E] [E,CE][E,B,E]- [E,B,E]/[E,CE]/[E,DE] |[M:5/8] [A,,A,]-[A,,A,]- [A,,A,]3 |] %17
V:3
 x6 | x6 | x6 | x6 | x6 | x6 | x6 | x6 | x6 | x6 | x6 | x6 | G>FG/A/ B2 G | x6 |[M:13/16] x13/2 | %15
[M:3/4] x6 |[M:5/8] x5 |] %17
V:4
 x6 | x6 | x6 | x6 | x6 | x6 | x6 | x6 | x6 | x6 | x6 | x6 | E,6 | x6 |[M:13/16] x13/2 | %15
[M:3/4] x6 |[M:5/8] x5 |] %17

